X: 15128
T: Gift Of Music, The
R: slip jig
M: 9/8
K: Adorian
|:c2e dcd ecA|c2e dcd ecG|B2d B2d BAG|DGA Bdc BAG:|
|:age {g}edB c2A|Bce dcd ecA|age {g}edB c2A|B2d B2d BAG:|

